X: 155
T: Le Vieux gondolier
C: Zofia Chodkiewicz
%%abc-version 2.0
%%abcx-abcm2ps-target-version 5.9.1 (29 Sep 2008)
%%abc-creator hum2abc beta
%%abcx-conversion-date 2021/10/04 07:38:40
%%abc-edited-by Marcin Jachim
%%abc-edited-by Kamil Watkowski
%%abcx-initial-encoding-date 2021-08-13
%%humdrum-veritas 1297406686
%%humdrum-veritas-data 1037559471
%%linebreak <none>
%%barnumbers 0
L: 1/16
M: 3/8
N: Derived from pl-kozmzk--mzk-m-73_chodkiewicz-zofia-le-vieux-gondolier.krn
Q: "Allegretto."
V: 1 clef=treble
V: 2 clef=treble
V: 3 clef=bass
K: Ab
[V:1] z6 | 
[V:2] CGBcBG | 
[V:3] [=E,,6=E,6] | 
[V:1] z6 | 
[V:2] DGBdBG | 
[V:3] [F,,6F,6] | 
[V:1] z6 | 
[V:2] CGBcBG | 
[V:3] [=E,,6=E,6] | 
[V:1] z6 | 
[V:2] DGBdBG | 
[V:3] [F,,6F,6] | 
[V:1] z6 | 
[V:2] CGcB z [CFA] | 
[V:3] [=E,,4=E,4][F,,2F,2] | 
[V:1] !fermata!z6 | 
[V:2] z [B,DG] z [A,CF] z !fermata![G,C=E] | 
[V:3] B,, z C, z C,, !fermata!z | 
[V:1] F2 d2 c2 | 
[V:2] z2 [A,CF][A,CF][A,2C2F2] | 
[V:3] [F,,6F,6] | 
[V:1] c4c2 | 
[V:2] z2 [A,CF][A,CF][A,2C2F2] | 
[V:3] [F,,6F,6] | 
[V:1] B4e2 | 
[V:2] z2 [B,DEG][B,DEG][B,2D2E2G2] | 
[V:3] [E,,6E,6] | 
[V:1] c6 | 
[V:2] z2 [CEA][CEA][C2E2A2] | 
[V:3] [A,,6A,6] | 
[V:1] z2 e2 e2 | 
[V:2] z2 [CEA][CEA][C2E2A2] | 
[V:3] [E,,6E,6] | 
[V:1] e2 defe | 
[V:2] z2 [B,DEG][B,DEG][B,2D2E2G2] | 
[V:3] [E,,6E,6] | 
[V:1] c6 | 
[V:2] [C2A2][E2c2][D2B2] | 
[V:3] [A,,4A,4]E,2 | 
[V:1] z6 | 
[V:2] [C6A6] | 
[V:3] [A,,6A,6] | 
[V:1] c2 c2 c2 | 
[V:2] z2 [CEF=A][CEFA][C2E2F2A2] | 
[V:3] [F,,6F,6] | 
[V:1] !accent!f4e2 | 
[V:2] z2 [CEF=A][CEFA][C2E2F2A2] | 
[V:3] [F,,6F,6] | 
[V:1] !accent!d4c2 | 
[V:2] z2 [DFB][DFB][D2F2B2] | 
[V:3] [B,,6B,6] | 
[V:1] B6 | 
[V:2] z2 [DFB][DFB][D2F2B2] | 
[V:3] [B,,6B,6] | 
[V:1] z2 e2-e2 | 
[V:2] z2 [B,DEG][B,DEG][B,2D2E2G2] | 
[V:3] [E,,6E,6] | 
[V:1] e2 d2 B2 | 
[V:2] z2 [B,DEG][B,DEG][B,2D2E2G2] | 
[V:3] [E,,6E,6] | 
[V:1] A6 | 
[V:2] [D2A2][E2c2][D2B2] | 
[V:3] [A,,4A,4]E,2 | 
[V:1] z6 | 
[V:2] [C6A6] | 
[V:3] [A,,6A,6] | 
[V:1] !accent!c2 c2- c2 | 
[V:2] CGBcBG | 
[V:3] [=E,,6=E,6] | 
[V:1] !accent!d4-d2 | 
[V:2] DGBdBG | 
[V:3] [F,,6F,6] | 
[V:1] c6 | 
[V:2] CGBcBG | 
[V:3] [=E,,6=E,6] | 
[V:1] !accent!d6 | 
[V:2] DGBdBG | 
[V:3] [F,,6F,6] | 
[V:1] c2 c2 c2 | 
[V:2] CGBcBG | 
[V:3] [=E,,6=E,6] | 
[V:1] !accent!d4d2 | 
[V:2] DGBdBG | 
[V:3] [F,,6F,6] | 
[V:1] c6 | 
[V:2] CGBcBG | 
[V:3] [=E,,6=E,6] | 
[V:1] z6 | 
[V:2] CGBcBG | 
[V:3] [=E,,6=E,6] | 
[V:1] c2 c2 c2 | 
[V:2] z2 [_G=A][GA][G2A2] | 
[V:3] [_E,6_E6] | 
[V:1] f4f2 | 
[V:2] z2 [F=A][FA][F2A2] | 
[V:3] [E,6E6] | 
[V:1] !accent!f6 | 
[V:2] z2 [FB][FB][F2B2] | 
[V:3] [=D,6=D6] | 
[V:1] =B2 B2 B2 | 
[V:2] z2 [F=B][FB][F2B2] | 
[V:3] [_D,6_D6] | 
[V:1] c6- | 
[V:2] z2 [FAc][FAc][F2A2c2] | 
[V:3] [C,6C6] | 
[V:1] c2 !accent!d2 c2 | 
[V:2] z2 [=EGB=e][EGBe][E2G2B2e2] | 
[V:3] [C,6C6] | 
[V:1] f6- | 
[V:2] z2 [FAf][FAf][F2A2f2] | 
[V:3] [_D,6_D6] | 
[V:1] f2 =B2 B2 | 
[V:2] z2 [FA=B][FAB][F2A2B2] | 
[V:3] [D,6D6] | 
[V:1] c6 | 
[V:2] z2 [FAc][FAc][F2A2c2] | 
[V:3] [C,6C6] | 
[V:1] G2 !accent!B2 A2 | 
[V:2] z2 [A,B,C=E][A,B,CE][A,2B,2C2E2] | 
[V:3] [C,,6C,6] | 
[V:1] F6 | 
[V:2] [A,2F2][A,2C2][A,2C2A2] | 
[V:3] [F,,2F,2]C,2A,,2 | 
[V:1] z6 |]  
[V:2] [A,6C6F6] |]  
[V:3] [F,,6F,6] |]  



